images/1d2f0.svg

<?xml version="1.0" encoding="UTF-8" standalone="no"?>
<svg
   xmlns:dc="http://purl.org/dc/elements/1.1/"
   xmlns:cc="http://creativecommons.org/ns#"
   xmlns:rdf="http://www.w3.org/1999/02/22-rdf-syntax-ns#"
   xmlns:svg="http://www.w3.org/2000/svg"
   xmlns="http://www.w3.org/2000/svg"
   xmlns:sodipodi="http://sodipodi.sourceforge.net/DTD/sodipodi-0.dtd"
   xmlns:inkscape="http://www.inkscape.org/namespaces/inkscape"
   fill-opacity="1"
   color-rendering="auto"
   color-interpolation="auto"
   text-rendering="auto"
   stroke="black"
   stroke-linecap="square"
   stroke-miterlimit="10"
   shape-rendering="auto"
   stroke-opacity="1"
   fill="black"
   stroke-dasharray="none"
   font-weight="normal"
   stroke-width="1"
   font-family="'Dialog'"
   font-style="normal"
   stroke-linejoin="miter"
   font-size="12"
   stroke-dashoffset="0"
   image-rendering="auto"
   version="1.1"
   id="svg3885"
   sodipodi:docname="1d2f0.svg"
   inkscape:version="0.92.3 (2405546, 2018-03-11)">
  <metadata
     id="metadata3889">
    <rdf:RDF>
      <cc:Work
         rdf:about="">
        <dc:format>image/svg+xml</dc:format>
        <dc:type
           rdf:resource="http://purl.org/dc/dcmitype/StillImage" />
      </cc:Work>
    </rdf:RDF>
  </metadata>
  <sodipodi:namedview
     pagecolor="#ffffff"
     bordercolor="#666666"
     borderopacity="1"
     objecttolerance="10"
     gridtolerance="10"
     guidetolerance="10"
     inkscape:pageopacity="0"
     inkscape:pageshadow="2"
     inkscape:window-width="1853"
     inkscape:window-height="911"
     id="namedview3887"
     showgrid="false"
     inkscape:zoom="0.91375"
     inkscape:cx="538.79372"
     inkscape:cy="26.891703"
     inkscape:window-x="67"
     inkscape:window-y="27"
     inkscape:window-maximized="1"
     inkscape:current-layer="svg3885" />
  <!--Unicode Character 'MAYAN NUMERAL SIXTEEN' (U+1D2F0)-->
  <defs
     id="genericDefs" />
  <g
     id="g3883"
     transform="matrix(0.39057238,0,0,0.39057238,-6.1590823,-48.639351)">
    <g
       id="g3881">
      <path
         d="m 164.5312,170.7188 q 0,8.4374 -6.0468,14.4843 -6.0469,6.0469 -14.4844,6.0469 -8.4375,0 -14.4844,-6.0469 -6.0468,-6.0469 -6.0468,-14.4843 0,-8.4376 6.0468,-14.5547 6.0469,-6.1172 14.4844,-6.1172 8.4375,0 14.4844,6.1172 6.0468,6.1171 6.0468,14.5547 z m 77.9063,69.75 H 45.5625 v -27 h 196.875 z m 0,56.25 H 45.5625 v -27 h 196.875 z m 0,56.25 H 45.5625 v -27 h 196.875 z"
         id="path3879"
         inkscape:connector-curvature="0"
         style="stroke:none" />
    </g>
  </g>
</svg>

<?xml version="1.0" encoding="UTF-8"?>
<!DOCTYPE svg PUBLIC "-//W3C//DTD SVG 1.0//EN" "http://www.w3.org/TR/2001/REC-SVG-20010904/DTD/svg10.dtd">
<svg fill-opacity="1" xmlns:xlink="http://www.w3.org/1999/xlink" color-rendering="auto" color-interpolation="auto" text-rendering="auto" stroke="black" stroke-linecap="square" stroke-miterlimit="10" shape-rendering="auto" stroke-opacity="1" fill="black" stroke-dasharray="none" font-weight="normal" stroke-width="1" xmlns="http://www.w3.org/2000/svg" font-family="'Dialog'" font-style="normal" stroke-linejoin="miter" font-size="12" stroke-dashoffset="0" image-rendering="auto">
  <!--Unicode Character 'MAYAN NUMERAL SIXTEEN' (U+1D2F0)-->
  <defs id="genericDefs"/>
  <g>
    <g>
      <path d="M164.5312 170.7188 Q164.5312 179.1562 158.4844 185.2031 Q152.4375 191.25 144 191.25 Q135.5625 191.25 129.5156 185.2031 Q123.4688 179.1562 123.4688 170.7188 Q123.4688 162.2812 129.5156 156.1641 Q135.5625 150.0469 144 150.0469 Q152.4375 150.0469 158.4844 156.1641 Q164.5312 162.2812 164.5312 170.7188 ZM242.4375 240.4688 L45.5625 240.4688 L45.5625 213.4688 L242.4375 213.4688 L242.4375 240.4688 ZM242.4375 296.7188 L45.5625 296.7188 L45.5625 269.7188 L242.4375 269.7188 L242.4375 296.7188 ZM242.4375 352.9688 L45.5625 352.9688 L45.5625 325.9688 L242.4375 325.9688 L242.4375 352.9688 Z" stroke="none"/>
    </g>
  </g>
</svg>
